X: 22857
T: Lark In The Morning, The
R: jig
M: 6/8
K: Dmajor
A2 A AdB|AFA D2 D|AFA fge|fdB BAF|
~A3 AdB|AF/G/A DFA|gge fed|f/e/dB BAF|
A2 A AdB|AFA DD/D/D|AD/D/D fge|fdB BAF|
AAA AdB|AFA D2 f|gfe fed|edB BAF||
Adf a2 f|abf afd|Adf aaf|gfe fdB|
Adf aaf|abf afd|gfe fed|edB BAF|
Adf aaf|abf afd|Ad/e/f aaf|gfe fdB|
Adf aaf|abf afd|g2 e fed|edB BAF||

